src/imagens/sectionBanner/iconeDownload.svg

<svg width="23" height="26" viewBox="0 0 23 26" fill="none" xmlns="http://www.w3.org/2000/svg">
<path d="M12.6782 0C13 0 13.2703 0.273 13.2703 0.598V4.784C13.2703 7.163 15.201 9.113 17.5693 9.126C18.5347 9.126 19.3198 9.139 19.899 9.139L20.1183 9.13804C20.514 9.13503 21.0467 9.126 21.5079 9.126C21.8426 9.126 22.1 9.386 22.1 9.711V20.163C22.1 23.387 19.5 26 16.3079 26H6.07525C2.71584 26 0 23.257 0 19.877V5.863C0 2.639 2.58713 0 5.80495 0H12.6782ZM10.5802 8.762C10.0525 8.762 9.61485 9.191 9.61485 9.737V16.003L7.56832 13.923C7.19505 13.546 6.5901 13.546 6.21683 13.923C5.84356 14.3 5.84356 14.911 6.21683 15.301L9.89802 19.032C9.98812 19.123 10.0911 19.188 10.2069 19.24C10.3228 19.292 10.4515 19.318 10.5802 19.318C10.7089 19.318 10.8248 19.292 10.9406 19.24C11.0564 19.188 11.1594 19.123 11.2495 19.032L14.9436 15.301C15.3168 14.911 15.3168 14.3 14.9307 13.923C14.5574 13.546 13.9525 13.546 13.5792 13.923L11.5327 16.003V9.737C11.5327 9.191 11.1079 8.762 10.5802 8.762ZM15.1386 1.17793C15.1386 0.61763 15.8117 0.33943 16.1953 0.74373C17.588 2.20493 20.0194 4.75943 21.3786 6.18683C21.7544 6.58073 21.479 7.23463 20.9358 7.23593C19.8791 7.23983 18.6318 7.23593 17.7347 7.22683C16.3111 7.22683 15.1386 6.04253 15.1386 4.60473V1.17793Z" fill="#1F1F1F"/>
</svg>

<svg xmlns="http://www.w3.org/2000/svg" width="23" height="26" fill="none"><path fill="#1F1F1F" d="M12.678 0c.322 0 .592.273.592.598v4.186c0 2.379 1.931 4.329 4.3 4.342.965 0 1.75.013 2.329.013l.22-.001c.395-.003.928-.012 1.389-.012.335 0 .592.26.592.585v10.452c0 3.224-2.6 5.837-5.792 5.837H6.075C2.715 26 0 23.257 0 19.877V5.863C0 2.639 2.587 0 5.805 0h6.873ZM10.58 8.762a.969.969 0 0 0-.965.975v6.266l-2.047-2.08a.949.949 0 0 0-1.351 0 .988.988 0 0 0 0 1.378l3.681 3.731c.09.091.193.156.309.208a.916.916 0 0 0 .734 0 .999.999 0 0 0 .308-.208l3.695-3.731a.976.976 0 0 0-.013-1.378.949.949 0 0 0-1.352 0l-2.046 2.08V9.737a.958.958 0 0 0-.953-.975Zm4.559-7.584c0-.56.673-.839 1.056-.434 1.393 1.46 3.824 4.015 5.184 5.443.375.394.1 1.048-.443 1.049-1.057.004-2.304 0-3.201-.01-1.424 0-2.596-1.183-2.596-2.621V1.178Z"/></svg>
